X:1
%
T:Nail that Catfish (to a tree) - G
L:1/8
M:C
C:Steve Rosen
S:Edinburgh-based fiddler, mandolinist and banjoist Pete Budd
Z:Nigel Gatherer
K:G
z2|"G"D2B2A2B2|"C"cB A2 "G"B4|"D"ABAG FGAB|"D"A2F2 E/F/E D2|
D2|:"C"E4A4|c6 B2|"D"ABAG FGAB|A2F2 E/F/E D2|

